src/svg/resizewest.svg

<svg height="35" viewBox="0 0 35 35" width="35" xmlns="http://www.w3.org/2000/svg"><g fill="none" fill-rule="evenodd"><path d="m11 17 5.999 6.001.001-4.001h7v-3.996l-7-.002v-4.002z" fill="#fff"/><path d="m23 18h-7v2.587l-3.586-3.587 3.586-3.585v2.586l7 .003z" fill="#000"/></g></svg>

<?xml version="1.0" encoding="UTF-8" standalone="no"?>
<svg width="35px" height="35px" viewBox="0 0 35 35" version="1.1" xmlns="http://www.w3.org/2000/svg" xmlns:xlink="http://www.w3.org/1999/xlink">
    <defs></defs>
    <g id="Page-1" stroke="none" stroke-width="1" fill="none" fill-rule="evenodd">
        <g id="resizewest">
            <g id="bg-copy" fill="#FFFFFF" opacity="0.00999999978">
                <rect id="bg" x="0" y="0" width="35" height="35"></rect>
            </g>
            <path d="M11,17 L16.999,23.001 L17,19 L24,19 L24,15.004 L17,15.002 L17,11 L11,17 Z" id="arrow-border" fill="#FFFFFF"></path>
            <path d="M23,18 L16,18 L16,20.587 L12.414,17 L16,13.415 L16,16.001 L23,16.004 L23,18 Z" id="arrow" fill="#000000"></path>
        </g>
    </g>
</svg>
